public/images/logo.svg

<?xml version="1.0" encoding="UTF-8" standalone="no"?>
<svg
   xmlns:dc="http://purl.org/dc/elements/1.1/"
   xmlns:cc="http://creativecommons.org/ns#"
   xmlns:rdf="http://www.w3.org/1999/02/22-rdf-syntax-ns#"
   xmlns:svg="http://www.w3.org/2000/svg"
   xmlns="http://www.w3.org/2000/svg"
   xmlns:sodipodi="http://sodipodi.sourceforge.net/DTD/sodipodi-0.dtd"
   xmlns:inkscape="http://www.inkscape.org/namespaces/inkscape"
   width="1582"
   height="784"
   viewBox="0 0 1582 784"
   fill="none"
   version="1.1"
   id="svg13"
   sodipodi:docname="logo.svg"
   inkscape:version="0.92.3 (2405546, 2018-03-11)">
  <metadata
     id="metadata17">
    <rdf:RDF>
      <cc:Work
         rdf:about="">
        <dc:format>image/svg+xml</dc:format>
        <dc:type
           rdf:resource="http://purl.org/dc/dcmitype/StillImage" />
      </cc:Work>
    </rdf:RDF>
  </metadata>
  <sodipodi:namedview
     pagecolor="#ffffff"
     bordercolor="#666666"
     borderopacity="1"
     objecttolerance="10"
     gridtolerance="10"
     guidetolerance="10"
     inkscape:pageopacity="0"
     inkscape:pageshadow="2"
     inkscape:window-width="1920"
     inkscape:window-height="1029"
     id="namedview15"
     showgrid="false"
     inkscape:zoom="0.36788875"
     inkscape:cx="1236.7869"
     inkscape:cy="609.45704"
     inkscape:window-x="0"
     inkscape:window-y="25"
     inkscape:window-maximized="1"
     inkscape:current-layer="g6" />
  <g
     clip-path="url(#clip0)"
     id="g6"
     transform="matrix(1.4135099,0,0,1.4135099,-345.90089,-170.07505)"
     style="stroke-width:0.70745873">
    <path
       d="m 551.912,379.776 c 2.496,0 4.416,1.152 5.76,3.456 1.536,2.304 2.304,5.472 2.304,9.504 0,7.488 -1.824,13.44 -5.472,17.856 -10.752,12.864 -21.216,21.888 -31.392,27.072 -9.984,5.184 -22.08,7.776 -36.288,7.776 -9.984,0 -19.2,-1.248 -27.648,-3.744 -8.448,-2.496 -18.72,-6.24 -30.816,-11.232 -10.944,-4.8 -21.504,-8.736 -31.68,-11.808 -9.792,17.856 -24.48,26.784 -44.064,26.784 -10.752,0 -19.296,-2.4 -25.632,-7.2 -6.528,-4.992 -9.792,-11.328 -9.792,-19.008 0,-9.408 4.512,-17.184 13.536,-23.328 9.024,-6.336 21.024,-9.504 36,-9.504 h 3.744 l 5.184,-83.808 c 1.152,-19.2 4.608,-35.04 10.368,-47.52 5.76,-12.48 13.728,-23.136 23.904,-31.968 8.832,-7.68 18.912,-13.44 30.24,-17.28 11.328,-4.032 23.328,-6.048 36,-6.048 20.736,0 36.672,5.376 47.808,16.128 11.136,10.752 16.704,24.768 16.704,42.048 0,11.712 -2.112,21.216 -6.336,28.512 -4.224,7.104 -10.08,10.656 -17.568,10.656 -5.376,0 -9.6,-1.248 -12.672,-3.744 -3.072,-2.688 -4.608,-6.432 -4.608,-11.232 0,-1.728 0.384,-4.896 1.152,-9.504 1.152,-5.376 1.728,-10.176 1.728,-14.4 0,-8.064 -2.4,-14.4 -7.2,-19.008 -4.608,-4.8 -11.712,-7.2 -21.312,-7.2 -16.896,0 -29.952,5.568 -39.168,16.704 -9.216,10.944 -15.072,28.224 -17.568,51.84 l -6.624,65.376 c -0.96,9.216 -2.208,17.184 -3.744,23.904 12.288,2.112 27.648,5.472 46.08,10.08 10.752,2.688 19.008,4.608 24.768,5.76 5.76,1.152 10.848,1.728 15.264,1.728 11.136,0 20.64,-1.824 28.512,-5.472 8.064,-3.84 15.648,-9.888 22.752,-18.144 2.304,-2.688 4.896,-4.032 7.776,-4.032 z m 154.636,-24.192 c 2.496,0 4.416,1.248 5.76,3.744 1.344,2.496 2.016,5.664 2.016,9.504 0,9.216 -2.784,14.688 -8.352,16.416 -11.52,4.032 -24.192,6.336 -38.016,6.912 -3.648,16.128 -10.848,29.088 -21.6,38.88 -10.752,9.6 -22.944,14.4 -36.576,14.4 -11.52,0 -21.408,-2.784 -29.664,-8.352 -8.064,-5.568 -14.208,-12.96 -18.432,-22.176 -4.224,-9.216 -6.336,-19.2 -6.336,-29.952 0,-14.592 2.784,-27.552 8.352,-38.88 5.568,-11.52 13.248,-20.448 23.04,-26.784 9.792,-6.528 20.64,-9.792 32.544,-9.792 14.592,0 26.304,5.088 35.136,15.264 9.024,9.984 14.304,22.368 15.84,37.152 9.024,-0.576 19.776,-2.496 32.256,-5.76 1.536,-0.384 2.88,-0.576 4.032,-0.576 z m -94.464,59.328 c 6.144,0 11.424,-2.496 15.84,-7.488 4.608,-4.992 7.68,-12.192 9.216,-21.6 -5.952,-4.032 -10.56,-9.312 -13.824,-15.84 -3.072,-6.528 -4.608,-13.44 -4.608,-20.736 0,-3.072 0.288,-6.144 0.864,-9.216 h -1.44 c -7.68,0 -14.112,3.744 -19.296,11.232 -4.992,7.296 -7.488,17.664 -7.488,31.104 0,10.56 2.016,18.624 6.048,24.192 4.224,5.568 9.12,8.352 14.688,8.352 z m 224.401,-59.328 c 2.496,0 4.416,1.248 5.76,3.744 1.344,2.496 2.016,5.664 2.016,9.504 0,9.216 -2.784,14.688 -8.352,16.416 -11.52,4.032 -24.192,6.336 -38.016,6.912 -3.648,16.128 -10.848,29.088 -21.6,38.88 -10.752,9.6 -22.944,14.4 -36.576,14.4 -11.52,0 -21.408,-2.784 -29.664,-8.352 -8.064,-5.568 -14.208,-12.96 -18.432,-22.176 -4.224,-9.216 -6.336,-19.2 -6.336,-29.952 0,-14.592 2.784,-27.552 8.352,-38.88 5.568,-11.52 13.248,-20.448 23.04,-26.784 9.792,-6.528 20.64,-9.792 32.544,-9.792 14.592,0 26.304,5.088 35.136,15.264 9.024,9.984 14.304,22.368 15.84,37.152 9.024,-0.576 19.776,-2.496 32.256,-5.76 1.536,-0.384 2.88,-0.576 4.032,-0.576 z m -94.464,59.328 c 6.144,0 11.424,-2.496 15.84,-7.488 4.608,-4.992 7.68,-12.192 9.216,-21.6 -5.952,-4.032 -10.56,-9.312 -13.824,-15.84 -3.072,-6.528 -4.608,-13.44 -4.608,-20.736 0,-3.072 0.288,-6.144 0.864,-9.216 h -1.44 c -7.68,0 -14.112,3.744 -19.296,11.232 -4.992,7.296 -7.488,17.664 -7.488,31.104 0,10.56 2.016,18.624 6.048,24.192 4.224,5.568 9.12,8.352 14.688,8.352 z m 231.314,-35.136 c 2.496,0 4.416,1.152 5.76,3.456 1.536,2.304 2.304,5.472 2.304,9.504 0,7.68 -1.824,13.632 -5.472,17.856 -8.256,10.176 -17.184,18.528 -26.784,25.056 -9.408,6.528 -20.16,9.792 -32.256,9.792 -10.176,0 -18.432,-3.648 -24.768,-10.944 -10.944,7.104 -22.368,10.752 -34.272,10.944 -2.496,37.056 -8.16,67.968 -16.992,92.736 -8.832,24.96 -21.792,37.44 -38.88,37.44 -10.368,0 -18.048,-3.744 -23.04,-11.232 -4.992,-7.488 -7.488,-17.856 -7.488,-31.104 0,-18.816 4.32,-40.8 12.96,-65.952 8.64,-24.96 21.984,-52.512 40.032,-82.656 0,-28.032 -0.192,-47.52 -0.576,-58.464 -0.192,-5.568 2.016,-9.984 6.624,-13.248 4.608,-3.264 10.368,-4.896 17.28,-4.896 4.032,0 6.912,0.864 8.64,2.592 1.92,1.536 2.976,4.704 3.168,9.504 0,4.8 0.096,8.352 0.288,10.656 6.144,-7.68 12.192,-13.152 18.144,-16.416 5.952,-3.456 12.288,-5.184 19.008,-5.184 10.752,0 19.488,4.32 26.208,12.96 6.912,8.64 10.368,19.968 10.368,33.984 0,10.176 -1.632,20.064 -4.896,29.664 -3.264,9.6 -7.776,18.336 -13.536,26.208 4.032,1.152 7.392,1.728 10.08,1.728 6.336,0 12.384,-2.304 18.144,-6.912 5.76,-4.608 13.152,-12.288 22.176,-23.04 2.304,-2.688 4.896,-4.032 7.776,-4.032 z m -114.048,38.016 c 6.912,-1.536 13.248,-5.28 19.008,-11.232 5.952,-6.144 10.656,-13.632 14.112,-22.464 3.456,-9.024 5.184,-18.432 5.184,-28.224 0,-5.76 -1.152,-10.08 -3.456,-12.96 -2.304,-3.072 -5.376,-4.608 -9.216,-4.608 -6.912,0 -15.264,7.296 -25.056,21.888 -0.192,8.448 -0.288,20.832 -0.288,37.152 0,8.832 -0.096,15.648 -0.288,20.448 z m -55.008,129.6 c 5.184,0 9.504,-11.328 12.96,-33.984 3.456,-22.464 5.664,-50.496 6.624,-84.096 -8.256,19.2 -14.784,37.536 -19.584,55.008 -4.8,17.472 -7.2,32.16 -7.2,44.064 0,6.144 0.768,10.848 2.304,14.112 1.344,3.264 2.976,4.896 4.896,4.896 z M 995.927,290.784 c -8.064,0 -14.112,-1.824 -18.144,-5.472 -4.032,-3.84 -6.048,-9.12 -6.048,-15.84 0,-6.72 2.592,-12.288 7.776,-16.704 5.376,-4.608 12,-6.912 19.872,-6.912 7.107,0 12.867,1.728 17.277,5.184 4.42,3.456 6.63,8.352 6.63,14.688 0,7.68 -2.5,13.824 -7.49,18.432 -4.99,4.416 -11.62,6.624 -19.873,6.624 z m -2.304,154.656 c -12.48,0 -21.6,-4.416 -27.36,-13.248 -5.568,-8.832 -8.352,-20.544 -8.352,-35.136 0,-8.64 1.056,-19.68 3.168,-33.12 2.304,-13.632 5.184,-26.304 8.64,-38.016 1.728,-6.144 4.032,-10.368 6.912,-12.672 2.88,-2.304 7.488,-3.456 13.824,-3.456 9.795,0 14.685,3.264 14.685,9.792 0,4.8 -1.82,15.936 -5.469,33.408 -4.608,21.12 -6.912,35.424 -6.912,42.912 0,5.76 0.768,10.176 2.304,13.248 1.536,3.072 4.128,4.608 7.777,4.608 3.46,0 7.78,-2.4 12.96,-7.2 5.18,-4.8 12.1,-12.384 20.74,-22.752 2.3,-2.688 4.89,-4.032 7.77,-4.032 2.5,0 4.42,1.152 5.76,3.456 1.54,2.304 2.31,5.472 2.31,9.504 0,7.68 -1.83,13.632 -5.48,17.856 -19,23.232 -36.76,34.848 -53.277,34.848 z m 138.557,-57.024 c 2.49,0 4.41,1.152 5.76,3.456 1.53,2.304 2.3,5.472 2.3,9.504 0,6.912 -1.63,12.864 -4.89,17.856 -5.38,8.256 -12.48,14.688 -21.32,19.296 -8.64,4.608 -19,6.912 -31.1,6.912 -18.43,0 -32.74,-5.472 -42.91,-16.416 -10.18,-11.136 -15.27,-26.112 -15.27,-44.928 0,-13.248 2.79,-25.536 8.36,-36.864 5.56,-11.52 13.24,-20.64 23.04,-27.36 9.98,-6.72 21.21,-10.08 33.69,-10.08 11.14,0 20.07,3.36 26.79,10.08 6.72,6.528 10.08,15.456 10.08,26.784 0,13.248 -4.8,24.672 -14.4,34.272 -9.41,9.408 -25.54,16.896 -48.39,22.464 4.61,8.832 12.39,13.248 23.33,13.248 7.87,0 14.3,-1.824 19.3,-5.472 5.18,-3.648 11.13,-9.792 17.85,-18.432 2.31,-2.88 4.9,-4.32 7.78,-4.32 z m -47.23,-50.4 c -7.11,0 -13.16,4.128 -18.15,12.384 -4.8,8.256 -7.2,18.24 -7.2,29.952 v 0.576 c 11.33,-2.688 20.26,-6.72 26.79,-12.096 6.52,-5.376 9.79,-11.616 9.79,-18.72 0,-3.648 -1.06,-6.528 -3.17,-8.64 -1.92,-2.304 -4.61,-3.456 -8.06,-3.456 z"
       id="path2"
       inkscape:connector-curvature="0"
       style="fill:#ffc700;stroke-width:0.57119298" />
    <path
       d="m 921.91,547.18 h 34.746 L 953.902,563 h -54.785 l 14.766,-85.312 H 933.98 Z M 998.93,563 c -0.546,-1.523 -0.82,-3.438 -0.82,-5.742 -4.336,4.765 -9.512,7.07 -15.527,6.914 -5.508,-0.078 -10.078,-1.914 -13.711,-5.508 -3.633,-3.594 -5.332,-7.949 -5.098,-13.066 0.196,-6.875 3.067,-12.149 8.613,-15.821 5.547,-3.711 13.125,-5.566 22.735,-5.566 l 6.448,0.117 0.7,-3.574 0.23,-3.106 c -0.15,-3.554 -1.93,-5.39 -5.327,-5.507 -4.219,-0.079 -6.817,2.246 -7.793,6.972 l -19.336,0.059 c 0.195,-4.258 1.582,-7.949 4.16,-11.074 2.578,-3.164 6.074,-5.586 10.488,-7.266 4.453,-1.719 9.18,-2.52 14.18,-2.402 4.808,0.117 9.008,1.132 12.598,3.047 3.63,1.875 6.35,4.511 8.14,7.91 1.8,3.359 2.48,7.246 2.05,11.66 l -4.74,29.824 -0.29,3.633 c -0.16,2.891 0.21,5.351 1.11,7.383 l -0.06,1.113 z m -11.015,-12.773 c 3.945,0.156 7.402,-1.582 10.371,-5.215 l 1.934,-10.196 -4.981,-0.058 c -3.086,0.078 -5.742,0.996 -7.969,2.754 -2.226,1.718 -3.535,4.082 -3.925,7.09 -0.196,1.601 0.097,2.929 0.878,3.984 0.821,1.016 2.051,1.562 3.692,1.641 z m 78.015,5.859 c -4.73,5.586 -10.43,8.301 -17.11,8.144 -6.21,-0.078 -10.9,-2.246 -14.06,-6.503 -3.13,-4.258 -4.34,-9.961 -3.63,-17.11 l 6.85,-41.015 h 19.28 l -6.97,41.25 c -0.12,1.132 -0.12,2.168 0,3.105 0.27,3.203 2.16,4.863 5.68,4.981 4.06,0.156 7.52,-1.446 10.37,-4.805 l 7.85,-44.531 h 19.4 L 1082.57,563 h -17.93 z m 56.81,-56.543 -1.35,7.617 c 5.08,-6.015 11.19,-8.945 18.34,-8.789 5.86,0.117 10.21,2.305 13.07,6.563 2.89,4.218 3.94,10.273 3.16,18.164 L 1149.28,563 h -19.34 l 6.74,-40.02 c 0.16,-1.367 0.2,-2.617 0.12,-3.75 -0.27,-3.71 -2.46,-5.566 -6.56,-5.566 -3.4,-0.078 -6.51,1.426 -9.32,4.512 L 1113.01,563 h -19.28 l 11.02,-63.398 z m 41.98,31.641 c 1.21,-10 4.26,-18.008 9.14,-24.024 4.88,-6.015 11.25,-8.926 19.1,-8.73 5.39,0.156 9.86,2.422 13.42,6.797 L 1212.53,473 h 19.34 l -15.59,90 h -17.17 l 0.82,-6.855 c -4.72,5.546 -9.98,8.242 -15.76,8.085 -6.09,-0.078 -10.88,-2.324 -14.35,-6.738 -3.44,-4.453 -5.28,-10.41 -5.51,-17.871 -0.08,-2.461 0,-4.863 0.23,-7.207 z m 19.22,1.289 c -0.32,2.5 -0.45,4.687 -0.41,6.562 0,6.485 2.18,9.785 6.56,9.903 3.79,0.117 7.17,-1.7 10.14,-5.45 l 4.33,-24.316 c -1.29,-3.594 -3.87,-5.449 -7.73,-5.567 -3.6,-0.078 -6.51,1.485 -8.73,4.688 -2.19,3.164 -3.58,7.891 -4.16,14.18 z m 90.67,-15 c -2.07,-0.313 -4.06,-0.508 -5.98,-0.586 -5.78,-0.157 -10.19,1.836 -13.24,5.976 L 1248.24,563 h -19.28 l 11.02,-63.398 17.99,-0.059 -1.47,8.32 c 4.14,-6.406 9.03,-9.609 14.65,-9.609 1.6,0 3.6,0.273 5.98,0.82 z m 30.38,17.636 16.41,-35.507 h 21.26 l -37.14,72.89 c -2.78,5.742 -5.98,9.883 -9.61,12.422 -3.6,2.578 -7.89,3.867 -12.89,3.867 -2.23,0 -5.06,-0.429 -8.5,-1.289 l 1.47,-14.121 h 2.22 c 2.38,0 4.47,-0.391 6.27,-1.172 1.8,-0.742 3.3,-2.207 4.51,-4.394 l 2.76,-5.274 -10.14,-62.929 h 19.92 z"
       id="path4"
       inkscape:connector-curvature="0"
       style="fill:#0085ff;stroke-width:0.57119298" />
  </g>
  <defs
     id="defs11">
    <clipPath
       id="clip0">
      <rect
         width="1582"
         height="784"
         fill="white"
         id="rect8" />
    </clipPath>
  </defs>
</svg>

<svg width="1582" height="784" viewBox="0 0 1582 784" fill="none" xmlns="http://www.w3.org/2000/svg">
<g clip-path="url(#clip0)">
<path d="M551.912 379.776C554.408 379.776 556.328 380.928 557.672 383.232C559.208 385.536 559.976 388.704 559.976 392.736C559.976 400.224 558.152 406.176 554.504 410.592C543.752 423.456 533.288 432.48 523.112 437.664C513.128 442.848 501.032 445.44 486.824 445.44C476.84 445.44 467.624 444.192 459.176 441.696C450.728 439.2 440.456 435.456 428.36 430.464C417.416 425.664 406.856 421.728 396.68 418.656C386.888 436.512 372.2 445.44 352.616 445.44C341.864 445.44 333.32 443.04 326.984 438.24C320.456 433.248 317.192 426.912 317.192 419.232C317.192 409.824 321.704 402.048 330.728 395.904C339.752 389.568 351.752 386.4 366.728 386.4H370.472L375.656 302.592C376.808 283.392 380.264 267.552 386.024 255.072C391.784 242.592 399.752 231.936 409.928 223.104C418.76 215.424 428.84 209.664 440.168 205.824C451.496 201.792 463.496 199.776 476.168 199.776C496.904 199.776 512.84 205.152 523.976 215.904C535.112 226.656 540.68 240.672 540.68 257.952C540.68 269.664 538.568 279.168 534.344 286.464C530.12 293.568 524.264 297.12 516.776 297.12C511.4 297.12 507.176 295.872 504.104 293.376C501.032 290.688 499.496 286.944 499.496 282.144C499.496 280.416 499.88 277.248 500.648 272.64C501.8 267.264 502.376 262.464 502.376 258.24C502.376 250.176 499.976 243.84 495.176 239.232C490.568 234.432 483.464 232.032 473.864 232.032C456.968 232.032 443.912 237.6 434.696 248.736C425.48 259.68 419.624 276.96 417.128 300.576L410.504 365.952C409.544 375.168 408.296 383.136 406.76 389.856C419.048 391.968 434.408 395.328 452.84 399.936C463.592 402.624 471.848 404.544 477.608 405.696C483.368 406.848 488.456 407.424 492.872 407.424C504.008 407.424 513.512 405.6 521.384 401.952C529.448 398.112 537.032 392.064 544.136 383.808C546.44 381.12 549.032 379.776 551.912 379.776ZM706.548 355.584C709.044 355.584 710.964 356.832 712.308 359.328C713.652 361.824 714.324 364.992 714.324 368.832C714.324 378.048 711.54 383.52 705.972 385.248C694.452 389.28 681.78 391.584 667.956 392.16C664.308 408.288 657.108 421.248 646.356 431.04C635.604 440.64 623.412 445.44 609.78 445.44C598.26 445.44 588.372 442.656 580.116 437.088C572.052 431.52 565.908 424.128 561.684 414.912C557.46 405.696 555.348 395.712 555.348 384.96C555.348 370.368 558.132 357.408 563.7 346.08C569.268 334.56 576.948 325.632 586.74 319.296C596.532 312.768 607.38 309.504 619.284 309.504C633.876 309.504 645.588 314.592 654.42 324.768C663.444 334.752 668.724 347.136 670.26 361.92C679.284 361.344 690.036 359.424 702.516 356.16C704.052 355.776 705.396 355.584 706.548 355.584ZM612.084 414.912C618.228 414.912 623.508 412.416 627.924 407.424C632.532 402.432 635.604 395.232 637.14 385.824C631.188 381.792 626.58 376.512 623.316 369.984C620.244 363.456 618.708 356.544 618.708 349.248C618.708 346.176 618.996 343.104 619.572 340.032H618.132C610.452 340.032 604.02 343.776 598.836 351.264C593.844 358.56 591.348 368.928 591.348 382.368C591.348 392.928 593.364 400.992 597.396 406.56C601.62 412.128 606.516 414.912 612.084 414.912ZM836.485 355.584C838.981 355.584 840.901 356.832 842.245 359.328C843.589 361.824 844.261 364.992 844.261 368.832C844.261 378.048 841.477 383.52 835.909 385.248C824.389 389.28 811.717 391.584 797.893 392.16C794.245 408.288 787.045 421.248 776.293 431.04C765.541 440.64 753.349 445.44 739.717 445.44C728.197 445.44 718.309 442.656 710.053 437.088C701.989 431.52 695.845 424.128 691.621 414.912C687.397 405.696 685.285 395.712 685.285 384.96C685.285 370.368 688.069 357.408 693.637 346.08C699.205 334.56 706.885 325.632 716.677 319.296C726.469 312.768 737.317 309.504 749.221 309.504C763.813 309.504 775.525 314.592 784.357 324.768C793.381 334.752 798.661 347.136 800.197 361.92C809.221 361.344 819.973 359.424 832.453 356.16C833.989 355.776 835.333 355.584 836.485 355.584ZM742.021 414.912C748.165 414.912 753.445 412.416 757.861 407.424C762.469 402.432 765.541 395.232 767.077 385.824C761.125 381.792 756.517 376.512 753.253 369.984C750.181 363.456 748.645 356.544 748.645 349.248C748.645 346.176 748.933 343.104 749.509 340.032H748.069C740.389 340.032 733.957 343.776 728.773 351.264C723.781 358.56 721.285 368.928 721.285 382.368C721.285 392.928 723.301 400.992 727.333 406.56C731.557 412.128 736.453 414.912 742.021 414.912ZM973.335 379.776C975.831 379.776 977.751 380.928 979.095 383.232C980.631 385.536 981.399 388.704 981.399 392.736C981.399 400.416 979.575 406.368 975.927 410.592C967.671 420.768 958.743 429.12 949.143 435.648C939.735 442.176 928.983 445.44 916.887 445.44C906.711 445.44 898.455 441.792 892.119 434.496C881.175 441.6 869.751 445.248 857.847 445.44C855.351 482.496 849.687 513.408 840.855 538.176C832.023 563.136 819.063 575.616 801.975 575.616C791.607 575.616 783.927 571.872 778.935 564.384C773.943 556.896 771.447 546.528 771.447 533.28C771.447 514.464 775.767 492.48 784.407 467.328C793.047 442.368 806.391 414.816 824.439 384.672C824.439 356.64 824.247 337.152 823.863 326.208C823.671 320.64 825.879 316.224 830.487 312.96C835.095 309.696 840.855 308.064 847.767 308.064C851.799 308.064 854.679 308.928 856.407 310.656C858.327 312.192 859.383 315.36 859.575 320.16C859.575 324.96 859.671 328.512 859.863 330.816C866.007 323.136 872.055 317.664 878.007 314.4C883.959 310.944 890.295 309.216 897.015 309.216C907.767 309.216 916.503 313.536 923.223 322.176C930.135 330.816 933.591 342.144 933.591 356.16C933.591 366.336 931.959 376.224 928.695 385.824C925.431 395.424 920.919 404.16 915.159 412.032C919.191 413.184 922.551 413.76 925.239 413.76C931.575 413.76 937.623 411.456 943.383 406.848C949.143 402.24 956.535 394.56 965.559 383.808C967.863 381.12 970.455 379.776 973.335 379.776ZM859.287 417.792C866.199 416.256 872.535 412.512 878.295 406.56C884.247 400.416 888.951 392.928 892.407 384.096C895.863 375.072 897.591 365.664 897.591 355.872C897.591 350.112 896.439 345.792 894.135 342.912C891.831 339.84 888.759 338.304 884.919 338.304C878.007 338.304 869.655 345.6 859.863 360.192C859.671 368.64 859.575 381.024 859.575 397.344C859.575 406.176 859.479 412.992 859.287 417.792ZM804.279 547.392C809.463 547.392 813.783 536.064 817.239 513.408C820.695 490.944 822.903 462.912 823.863 429.312C815.607 448.512 809.079 466.848 804.279 484.32C799.479 501.792 797.079 516.48 797.079 528.384C797.079 534.528 797.847 539.232 799.383 542.496C800.727 545.76 802.359 547.392 804.279 547.392ZM995.927 290.784C987.863 290.784 981.815 288.96 977.783 285.312C973.751 281.472 971.735 276.192 971.735 269.472C971.735 262.752 974.327 257.184 979.511 252.768C984.887 248.16 991.511 245.856 999.383 245.856C1006.49 245.856 1012.25 247.584 1016.66 251.04C1021.08 254.496 1023.29 259.392 1023.29 265.728C1023.29 273.408 1020.79 279.552 1015.8 284.16C1010.81 288.576 1004.18 290.784 995.927 290.784ZM993.623 445.44C981.143 445.44 972.023 441.024 966.263 432.192C960.695 423.36 957.911 411.648 957.911 397.056C957.911 388.416 958.967 377.376 961.079 363.936C963.383 350.304 966.263 337.632 969.719 325.92C971.447 319.776 973.751 315.552 976.631 313.248C979.511 310.944 984.119 309.792 990.455 309.792C1000.25 309.792 1005.14 313.056 1005.14 319.584C1005.14 324.384 1003.32 335.52 999.671 352.992C995.063 374.112 992.759 388.416 992.759 395.904C992.759 401.664 993.527 406.08 995.063 409.152C996.599 412.224 999.191 413.76 1002.84 413.76C1006.3 413.76 1010.62 411.36 1015.8 406.56C1020.98 401.76 1027.9 394.176 1036.54 383.808C1038.84 381.12 1041.43 379.776 1044.31 379.776C1046.81 379.776 1048.73 380.928 1050.07 383.232C1051.61 385.536 1052.38 388.704 1052.38 392.736C1052.38 400.416 1050.55 406.368 1046.9 410.592C1027.9 433.824 1010.14 445.44 993.623 445.44ZM1132.18 388.416C1134.67 388.416 1136.59 389.568 1137.94 391.872C1139.47 394.176 1140.24 397.344 1140.24 401.376C1140.24 408.288 1138.61 414.24 1135.35 419.232C1129.97 427.488 1122.87 433.92 1114.03 438.528C1105.39 443.136 1095.03 445.44 1082.93 445.44C1064.5 445.44 1050.19 439.968 1040.02 429.024C1029.84 417.888 1024.75 402.912 1024.75 384.096C1024.75 370.848 1027.54 358.56 1033.11 347.232C1038.67 335.712 1046.35 326.592 1056.15 319.872C1066.13 313.152 1077.36 309.792 1089.84 309.792C1100.98 309.792 1109.91 313.152 1116.63 319.872C1123.35 326.4 1126.71 335.328 1126.71 346.656C1126.71 359.904 1121.91 371.328 1112.31 380.928C1102.9 390.336 1086.77 397.824 1063.92 403.392C1068.53 412.224 1076.31 416.64 1087.25 416.64C1095.12 416.64 1101.55 414.816 1106.55 411.168C1111.73 407.52 1117.68 401.376 1124.4 392.736C1126.71 389.856 1129.3 388.416 1132.18 388.416ZM1084.95 338.016C1077.84 338.016 1071.79 342.144 1066.8 350.4C1062 358.656 1059.6 368.64 1059.6 380.352V380.928C1070.93 378.24 1079.86 374.208 1086.39 368.832C1092.91 363.456 1096.18 357.216 1096.18 350.112C1096.18 346.464 1095.12 343.584 1093.01 341.472C1091.09 339.168 1088.4 338.016 1084.95 338.016Z" fill="#FFC700"/>
<path d="M921.91 547.18H956.656L953.902 563H899.117L913.883 477.688H933.98L921.91 547.18ZM998.93 563C998.384 561.477 998.11 559.562 998.11 557.258C993.774 562.023 988.598 564.328 982.583 564.172C977.075 564.094 972.505 562.258 968.872 558.664C965.239 555.07 963.54 550.715 963.774 545.598C963.97 538.723 966.841 533.449 972.387 529.777C977.934 526.066 985.512 524.211 995.122 524.211L1001.57 524.328L1002.27 520.754L1002.5 517.648C1002.35 514.094 1000.57 512.258 997.173 512.141C992.954 512.062 990.356 514.387 989.38 519.113L970.044 519.172C970.239 514.914 971.626 511.223 974.204 508.098C976.782 504.934 980.278 502.512 984.692 500.832C989.145 499.113 993.872 498.312 998.872 498.43C1003.68 498.547 1007.88 499.562 1011.47 501.477C1015.1 503.352 1017.82 505.988 1019.61 509.387C1021.41 512.746 1022.09 516.633 1021.66 521.047L1016.92 550.871L1016.63 554.504C1016.47 557.395 1016.84 559.855 1017.74 561.887L1017.68 563H998.93ZM987.915 550.227C991.86 550.383 995.317 548.645 998.286 545.012L1000.22 534.816L995.239 534.758C992.153 534.836 989.497 535.754 987.27 537.512C985.044 539.23 983.735 541.594 983.345 544.602C983.149 546.203 983.442 547.531 984.223 548.586C985.044 549.602 986.274 550.148 987.915 550.227ZM1065.93 556.086C1061.2 561.672 1055.5 564.387 1048.82 564.23C1042.61 564.152 1037.92 561.984 1034.76 557.727C1031.63 553.469 1030.42 547.766 1031.13 540.617L1037.98 499.602H1057.26L1050.29 540.852C1050.17 541.984 1050.17 543.02 1050.29 543.957C1050.56 547.16 1052.45 548.82 1055.97 548.938C1060.03 549.094 1063.49 547.492 1066.34 544.133L1074.19 499.602H1093.59L1082.57 563H1064.64L1065.93 556.086ZM1122.74 499.543L1121.39 507.16C1126.47 501.145 1132.58 498.215 1139.73 498.371C1145.59 498.488 1149.94 500.676 1152.8 504.934C1155.69 509.152 1156.74 515.207 1155.96 523.098L1149.28 563H1129.94L1136.68 522.98C1136.84 521.613 1136.88 520.363 1136.8 519.23C1136.53 515.52 1134.34 513.664 1130.24 513.664C1126.84 513.586 1123.73 515.09 1120.92 518.176L1113.01 563H1093.73L1104.75 499.602L1122.74 499.543ZM1164.72 531.184C1165.93 521.184 1168.98 513.176 1173.86 507.16C1178.74 501.145 1185.11 498.234 1192.96 498.43C1198.35 498.586 1202.82 500.852 1206.38 505.227L1212.53 473H1231.87L1216.28 563H1199.11L1199.93 556.145C1195.21 561.691 1189.95 564.387 1184.17 564.23C1178.08 564.152 1173.29 561.906 1169.82 557.492C1166.38 553.039 1164.54 547.082 1164.31 539.621C1164.23 537.16 1164.31 534.758 1164.54 532.414L1164.72 531.184ZM1183.94 532.473C1183.62 534.973 1183.49 537.16 1183.53 539.035C1183.53 545.52 1185.71 548.82 1190.09 548.938C1193.88 549.055 1197.26 547.238 1200.23 543.488L1204.56 519.172C1203.27 515.578 1200.69 513.723 1196.83 513.605C1193.23 513.527 1190.32 515.09 1188.1 518.293C1185.91 521.457 1184.52 526.184 1183.94 532.473ZM1274.61 517.473C1272.54 517.16 1270.55 516.965 1268.63 516.887C1262.85 516.73 1258.44 518.723 1255.39 522.863L1248.24 563H1228.96L1239.98 499.602L1257.97 499.543L1256.5 507.863C1260.64 501.457 1265.53 498.254 1271.15 498.254C1272.75 498.254 1274.75 498.527 1277.13 499.074L1274.61 517.473ZM1304.99 535.109L1321.4 499.602H1342.66L1305.52 572.492C1302.74 578.234 1299.54 582.375 1295.91 584.914C1292.31 587.492 1288.02 588.781 1283.02 588.781C1280.79 588.781 1277.96 588.352 1274.52 587.492L1275.99 573.371H1278.21C1280.59 573.371 1282.68 572.98 1284.48 572.199C1286.28 571.457 1287.78 569.992 1288.99 567.805L1291.75 562.531L1281.61 499.602H1301.53L1304.99 535.109Z" fill="#0085FF"/>
</g>
<defs>
<clipPath id="clip0">
<rect width="1582" height="784" fill="white"/>
</clipPath>
</defs>
</svg>
